build/img/sprite/icon-calendar.svg

<svg width="22" height="24" viewBox="0 0 22 24" fill="none" xmlns="http://www.w3.org/2000/svg">
<path d="M19.4012 2.40002H18.2012V0H15.8012V2.40002H6.20119V0H3.80117V2.40002H2.60119C1.27521 2.40002 0.213209 3.474 0.213209 4.80003L0.201172 21.6C0.201172 22.926 1.27515 24 2.60119 24H19.4012C20.7272 24 21.8012 22.926 21.8012 21.6V4.79998C21.8012 3.474 20.7272 2.40002 19.4012 2.40002ZM19.4012 21.6H2.60119V8.39997H19.4012V21.6Z" fill="#2C8ECC"/>
<path d="M16.4362 12.072L15.1642 10.8L9.30819 16.6561L6.76422 14.112L5.49219 15.384L9.30819 19.2L16.4362 12.072Z" fill="#2C8ECC"/>
</svg>

<svg width="22" height="24" fill="none" xmlns="http://www.w3.org/2000/svg"><path d="M19.401 2.4h-1.2V0h-2.4v2.4h-9.6V0h-2.4v2.4h-1.2A2.39 2.39 0 00.213 4.8L.201 21.6a2.4 2.4 0 002.4 2.4h16.8a2.4 2.4 0 002.4-2.4V4.8a2.4 2.4 0 00-2.4-2.4zm0 19.2h-16.8V8.4h16.8v13.2z" fill="#2C8ECC"/><path d="M16.436 12.072L15.164 10.8l-5.856 5.856-2.544-2.544-1.272 1.272L9.308 19.2l7.128-7.128z" fill="#2C8ECC"/></svg>
